(
SoundCard.saffire;
ServerBoot.add({NodeJS.restart}, \default);
{s.boot}.defer(2);
)
// NodeJS.restart

~part = Piece_Part_Spiegel_im_Spiegel.new
~part.add
~part.loadParams

~myssi = Piece_Mazzoli_Tooth_and_Nail.new
~myssi.play
~myssi.loadParams
~myssi.stop
